X:300
T: Eins und eins ist Gott allein (4-1), S. 2
N: P0562
O: Lothringen
S: PINCK, Louis: Verklingende Weisen Bd 4, Kassel 1939]
N: das Lied ist bis zur 7. Strophe aufgezeichnet, wird aber bis zur
N: 11. Strophe fortgesetzt; aufgenommen hier: 1. Strophe, sowie Mittelteil
N: und Schluá
R: geistliches Lied]
M: 2/4
L: 1/16
K: G
 | G2A2G2F2 | E2E2D4
G2A2G2F2 | E2E2D4
G2G2F2G2 | A4z4
G3AG2F2 | E2E2D4
G3AG2F2 | E2E2D2D2
G2A2B2G2 | A4G4
z8 | z8
G3AG2F2 | E2E2D2D2
G2A2B2GG | A4G4
B3BB2B2 | A2B2c4 |  |  |  |  |  |  |  |  |  |  |  |  |  |  |  |  |  |  |  |  |  |  |  |  |  |  |  |  |  |  |  |  |  |  |  |  |  |  |  |  |  |  |  |  |  |  |  | 
a3AA2A2 | G2A2B4 |  |  |  |  |  |  |  |  |  |  |  |  |  |  |  |  |  |  |  |  |  |  |  |  |  |  |  |  |  |  |  |  |  |  |  |  |  |  |  |  |  |  |  |  |  |  |  | 
g4F2E2 | F2G2A4 |  |  |  |  |  |  |  |  |  |  |  |  |  |  |  |  |  |  |  |  |  |  |  |  |  |  |  |  |  |  |  |  |  |  |  |  |  |  |  |  |  |  |  |  |  | 
g4F2E2 | F2G2A4 |  |  |  |  |  |  |  |  |  |  |  |  |  |  |  |  |  |  |  |  |  |  |  |  |  |  |  |  |  |  |  |  |  |  |  |  |  |  |  |  |  |  |  |  |  | 
g3AG2F2 | E2E2D4 |  |  |  |  |  |  |  |  |  |  |  |  |  |  |  |  |  |  |  |  |  |  |  |  |  |  |  |  |  |  |  |  |  |  |  |  |  |  |  |  |  |  |  | 
g3AG2F2 | E2E2D3D |  |  |  |  |  |  |  |  |  |  |  |  |  |  |  |  |  |  |  |  |  |  |  |  |  |  |  |  |  |  |  |  |  |  |  |  |  |  |  |  |  | 
g2A2B2G2 | A4G2z2

